svg/wolfi-light.svg

<svg xmlns="http://www.w3.org/2000/svg" width="316" height="128" fill="none" viewBox="0 0 316 128"><path fill="#E445DE" d="M183.283 75.5152C188.652 75.5857 192.563 72.5095 191.93 70.7366C191.161 68.6115 187.77 70.3257 183.057 68.5293C182.141 67.7779 182.842 65.5706 183.463 64.0912C185.589 60.4867 186.821 56.2482 186.821 51.7045C186.821 38.6133 176.602 27.9995 163.998 27.9995C151.394 27.9995 141.176 38.6133 141.176 51.7045C141.176 55.6729 142.114 59.3949 143.776 62.6823L143.764 62.6706C143.764 62.6706 146.342 67.5666 144.748 68.5998C140.136 70.267 136.824 68.635 136.066 70.7366C135.433 72.5095 139.344 75.5857 144.714 75.5152C140.17 78.8144 136.066 78.4857 135.998 81.1626C135.931 83.9217 143.821 86.1642 151.213 81.7262C147.675 86.7161 144.442 87.7375 145.822 90.9076C146.895 93.3849 154.752 91.7764 160.822 84.2152L160.811 84.2387C160.811 84.2387 160.833 84.2035 160.89 84.133C161.003 83.9921 161.116 83.8513 161.229 83.7104C161.794 83.0411 162.879 81.9727 163.987 81.9727C165.095 81.9727 166.169 83.0411 166.734 83.7104C166.847 83.863 166.96 84.0039 167.073 84.1448C167.118 84.2035 167.141 84.2505 167.141 84.2505L167.129 84.227C173.211 91.7882 181.056 93.3967 182.13 90.9194C183.509 87.7376 180.276 86.7278 176.738 81.7379C184.13 86.176 192.021 83.9335 191.953 81.1744C191.941 78.4739 187.827 78.8027 183.283 75.5152Z"/><path fill="#f7f7f7" fill-rule="evenodd" d="M223.995 59.9992C223.995 93.1358 197.133 119.998 163.996 119.998C152.627 119.998 141.997 116.836 132.937 111.344L130.827 113.453C129.265 115.015 126.733 115.016 125.171 113.454L112.968 125.657C109.844 128.781 104.779 128.781 101.655 125.657C98.5308 122.533 98.5308 117.468 101.655 114.344L113.858 102.141L113.857 102.14C112.295 100.578 112.295 98.0455 113.857 96.4834L115.293 95.0478C108.185 85.1878 103.997 73.0825 103.997 59.9992C103.997 26.8625 130.86 0 163.996 0C197.133 0 223.995 26.8625 223.995 59.9992ZM163.996 103.999C188.296 103.999 207.996 84.2994 207.996 59.9992C207.996 35.699 188.296 15.9998 163.996 15.9998C139.696 15.9998 119.997 35.699 119.997 59.9992C119.997 84.2994 139.696 103.999 163.996 103.999ZM255.992 52.7114V42.0841H265.513V37.6011C265.513 32.4463 267.112 28.2321 270.322 24.9339C273.532 21.648 278.378 19.999 284.883 19.999C286.299 19.999 287.715 20.0601 289.143 20.17C290.559 20.28 291.938 20.3777 293.281 20.451V32.3242C291.414 32.1043 289.473 31.9822 287.459 31.9822C285.286 31.9822 283.748 32.483 282.808 33.4968C281.869 34.5107 281.405 36.2086 281.405 38.5906V42.0597H292.378V52.7114H281.405V99.9965H265.5V52.7114H255.992ZM52.5219 45.5381L66.0704 99.9975H83.537L105.032 20H87.7846L74.6877 75.1311H74.468L60.8097 20H44.3439L30.4536 74.4471H30.2339L17.5765 20H0L21.165 99.9975H38.9733L52.3022 45.5381H52.5219ZM247.992 100.009V20.0117H231.992V100.009H247.992ZM300.003 20V33.1049H315.99V20H300.003ZM315.977 42.0698V99.9978H299.99V42.0698H315.977Z" clip-rule="evenodd"/><path fill="#fff" fill-rule="evenodd" d="M183.995 99.2049C198.244 91.923 208 77.1008 208 60C208 35.6995 188.3 16 164 16C146.899 16 132.077 25.7556 124.795 40.0052C157.301 40.4273 183.573 66.6989 183.995 99.2049Z" clip-rule="evenodd" opacity=".3"/></svg>

<svg xmlns="http://www.w3.org/2000/svg" width="316" height="128" fill="none"><path fill="#E445DE" d="M183.283 75.515c5.369.07 9.28-3.005 8.647-4.778-.769-2.125-4.16-.411-8.873-2.208-.916-.751-.215-2.958.406-4.438a24.3 24.3 0 0 0 3.358-12.386c0-13.092-10.219-23.705-22.823-23.705s-22.822 10.613-22.822 23.705c0 3.968.938 7.69 2.6 10.977l-.012-.011s2.578 4.896.984 5.929c-4.612 1.667-7.924.035-8.682 2.137-.633 1.773 3.278 4.849 8.648 4.778-4.544 3.3-8.648 2.97-8.716 5.648-.067 2.759 7.823 5.001 15.215.563-3.538 4.99-6.771 6.011-5.391 9.182 1.073 2.477 8.93.868 15-6.693l-.011.024s.022-.035.079-.106l.339-.423c.565-.669 1.65-1.737 2.758-1.737s2.182 1.068 2.747 1.737c.113.153.226.294.339.435a1 1 0 0 1 .068.106l-.012-.024c6.082 7.561 13.927 9.17 15.001 6.692 1.379-3.181-1.854-4.191-5.392-9.181 7.392 4.438 15.283 2.195 15.215-.564-.012-2.7-4.126-2.371-8.67-5.659"/><path fill="#f7f7f7" fill-rule="evenodd" d="M223.995 60c0 33.136-26.862 59.998-59.999 59.998-11.369 0-21.999-3.162-31.059-8.654l-2.11 2.109a4 4 0 0 1-5.656.001l-12.203 12.203a8 8 0 1 1-11.313-11.313l12.203-12.203-.001-.001a4 4 0 0 1 0-5.657l1.436-1.435c-7.108-9.86-11.296-21.966-11.296-35.049C103.997 26.862 130.86 0 163.996 0s59.999 26.863 59.999 60m-59.999 43.999c24.3 0 44-19.7 44-44s-19.7-44-44-44-43.999 19.7-43.999 44 19.699 44 43.999 44m91.996-51.288V42.084h9.521v-4.483c0-5.155 1.599-9.369 4.809-12.667 3.21-3.286 8.056-4.935 14.561-4.935 1.416 0 2.832.061 4.26.171 1.416.11 2.795.208 4.138.281v11.873a50 50 0 0 0-5.822-.342c-2.173 0-3.711.501-4.651 1.515-.939 1.014-1.403 2.712-1.403 5.094v3.469h10.973V52.71h-10.973v47.286H265.5V52.71zm-203.47-7.173 13.548 54.46h17.467L105.032 20H87.785L74.688 75.131h-.22L60.81 20H44.344l-13.89 54.447h-.22L17.576 20H0l21.165 79.998h17.808l13.33-54.46zm195.47 54.471V20.012h-16v79.997zM300.003 20v13.105h15.987V20zm15.974 22.07v57.928H299.99V42.07z" clip-rule="evenodd"/><path fill="#fff" fill-rule="evenodd" d="M183.995 99.205C198.244 91.923 208 77.1 208 60c0-24.3-19.7-44-44-44-17.101 0-31.923 9.756-39.205 24.005 32.506.422 58.778 26.694 59.2 59.2" clip-rule="evenodd" opacity=".3"/></svg>
